X:291
T: Von Gott will ich nicht lassen
N: A0642A
O: Europa, Mitteleuropa, Deutschland
N: Dresdner Cod um 1570
R: Romanze, Ballade, Lied, religioeses Lied
M: 4/2
L: 1/4
K: G
A2 | _B3BB2B2 | c4A2
_B2 | G2G2G2F2 | G4z2
A2 | _B3BB2B2 | c4A2
_B2 | G2G2G2F2 | G8
G2A2_B2c2 | A4z2
d2 | d2d2d2d2 | c4d2
d2 | _B2c2B2A2 | =F3GA2
_B2 | G2_B2A2A2 | G6

